X: 10
T:Crack was Ninety in the Isle of Man, The
M:4/4
L:1/4
Q:100
K:D
"D"zAA>B|dddz|AA/2A/2AB|d<ddz|"A"z/2ee/2ee|e2de|"G"fddd|Bd2z|
"D"AA/2A/2AB|dd/2d/2dz/2d/2|AAAB|dddz|"A"zee/2e/2-e|eeee/2e/2|"G"fddd|Bd
dB|
"D"A/2A/2AAF|A2zf/2f/2|ffef|"A"gedc|"D"d4-|d4||
